X:81
T:Sally's Favourite
M:2/4
L:1/8
B:Thompson's Compleat Collection of 200 Favourite Country Dances, vol. 3 (London, 1773)
Z:Transcribed and edited by Flynn Titford-Mock, 2007
Z:abc's:AK/Fiddler's Companion
K:Bb
B2 cd | efga | bfdB | {B}A2 GF | B2 cd | efga | bg=eg | f2F2 :|
|: Acec | Bbab | Acec | Bbab | Acec | Bbab | deAc | B2 B,2 :|

